svg/logo/youtube_line.svg

<?xml version="1.0" encoding="UTF-8"?>
<svg width="24px" height="24px" viewBox="0 0 24 24" version="1.1" xmlns="http://www.w3.org/2000/svg" xmlns:xlink="http://www.w3.org/1999/xlink">
    <title>youtube_line</title>
    <g id="页面-1" stroke="none" stroke-width="1" fill="none" fill-rule="evenodd">
        <g id="Brand" transform="translate(-912.000000, -0.000000)" fill-rule="nonzero">
            <g id="youtube_line" transform="translate(912.000000, 0.000000)">
                 <path d="M24,0 L24,24 L0,24 L0,0 L24,0 Z M12.5934901,23.257841 L12.5819402,23.2595131 L12.5108777,23.2950439 L12.4918791,23.2987469 L12.4918791,23.2987469 L12.4767152,23.2950439 L12.4056548,23.2595131 C12.3958229,23.2563662 12.3870493,23.2590235 12.3821421,23.2649074 L12.3780323,23.275831 L12.360941,23.7031097 L12.3658947,23.7234994 L12.3769048,23.7357139 L12.4804777,23.8096931 L12.4953491,23.8136134 L12.4953491,23.8136134 L12.5071152,23.8096931 L12.6106902,23.7357139 L12.6232938,23.7196733 L12.6232938,23.7196733 L12.6266527,23.7031097 L12.609561,23.275831 C12.6075724,23.2657013 12.6010112,23.2592993 12.5934901,23.257841 L12.5934901,23.257841 Z M12.8583906,23.1452862 L12.8445485,23.1473072 L12.6598443,23.2396597 L12.6498822,23.2499052 L12.6498822,23.2499052 L12.6471943,23.2611114 L12.6650943,23.6906389 L12.6699349,23.7034178 L12.6699349,23.7034178 L12.678386,23.7104931 L12.8793402,23.8032389 C12.8914285,23.8068999 12.9022333,23.8029875 12.9078286,23.7952264 L12.9118235,23.7811639 L12.8776777,23.1665331 C12.8752882,23.1545897 12.8674102,23.1470016 12.8583906,23.1452862 L12.8583906,23.1452862 Z M12.1430473,23.1473072 C12.1332178,23.1423925 12.1221763,23.1452606 12.1156365,23.1525954 L12.1099173,23.1665331 L12.0757714,23.7811639 C12.0751323,23.7926639 12.0828099,23.8018602 12.0926481,23.8045676 L12.108256,23.8032389 L12.3092106,23.7104931 L12.3186497,23.7024347 L12.3186497,23.7024347 L12.3225043,23.6906389 L12.340401,23.2611114 L12.337245,23.2485176 L12.337245,23.2485176 L12.3277531,23.2396597 L12.1430473,23.1473072 Z" id="MingCute" fill-rule="nonzero"></path>
                <path d="M12,4 C12.8554231,4 13.7316302,4.02241864 14.5816652,4.05776684 L15.5861395,4.10578357 L15.5861395,4.10578357 L16.5474575,4.16256888 L16.5474575,4.16256888 L17.447588,4.22447896 L17.447588,4.22447896 L18.2685,4.28787 L18.2685,4.28787 C20.1065,4.43702 21.5836,5.85942 21.7633,7.71109 L21.8030749,8.13562908 L21.8030749,8.13562908 L21.8780889,9.04557185 C21.9482222,9.98880444 22,11.0173333 22,12 C22,12.9826667 21.9482222,14.0112 21.8780889,14.9544296 L21.8030749,15.8643665 C21.7899654,16.0096642 21.7766556,16.1513778 21.7633,16.2889 C21.5836,18.1406 20.1065,19.563 18.2685,19.7121 L17.447588,19.7754863 L17.447588,19.7754863 L16.5474575,19.837399 L16.5474575,19.837399 L15.5861395,19.8941917 L15.5861395,19.8941917 L14.5816652,19.9422178 C13.7316302,19.977574 12.8554231,20 12,20 C11.1445923,20 10.2683828,19.977574 9.41834133,19.9422178 L8.4138582,19.8941917 L8.4138582,19.8941917 L7.45253268,19.837399 L7.45253268,19.837399 L6.55240116,19.7754863 L6.55240116,19.7754863 L5.7315,19.7121 L5.7315,19.7121 C3.89351,19.563 2.4164,18.1406 2.23668,16.2889 L2.19692159,15.8643665 L2.19692159,15.8643665 L2.12192296,14.9544296 C2.05179556,14.0112 2,12.9826667 2,12 C2,11.0173333 2.05179556,9.98880444 2.12192296,9.04557185 L2.19692159,8.13562908 C2.21002667,7.99032988 2.22333111,7.84861444 2.23668,7.71109 C2.4164,5.85942 3.89351,4.43702 5.7315,4.28787 L6.55240056,4.22447896 L6.55240056,4.22447896 L7.45253071,4.16256888 L7.45253071,4.16256888 L8.41385476,4.10578357 L8.41385476,4.10578357 L9.41833696,4.05776684 C10.2683781,4.02241864 11.1445885,4 12,4 Z M12,6 C11.1746385,6 10.3259367,6.02172189 9.49966334,6.05610731 L8.52183015,6.10286855 L8.52183015,6.10286855 L7.58310343,6.15830836 L7.58310343,6.15830836 L6.70105832,6.21894832 L6.70105832,6.21894832 L5.89327,6.28131 L5.89327,6.28131 C5.00396,6.35348 4.31194,7.03249 4.22732,7.9043 C4.11002,9.11288 4,10.6181 4,12 C4,13.3819 4.11002,14.8871 4.22732,16.0957 C4.31194,16.9675 5.00396,17.6465 5.89327,17.7187 L6.70105832,17.781071 L6.70105832,17.781071 L7.58310343,17.8417127 L7.58310343,17.8417127 L8.52183015,17.8971491 L8.52183015,17.8971491 L9.49966334,17.9439042 C10.3259367,17.978284 11.1746385,18 12,18 C12.8253462,18 13.6740503,17.978284 14.5003284,17.9439042 L15.4781675,17.8971491 L15.4781675,17.8971491 L16.4168964,17.8417127 L16.4168964,17.8417127 L17.2989343,17.781071 L17.2989343,17.781071 L18.1067,17.7187 L18.1067,17.7187 C18.996,17.6465 19.6881,16.9675 19.7727,16.0957 C19.89,14.8871 20,13.3819 20,12 C20,10.6181 19.89,9.11288 19.7727,7.9043 C19.6881,7.03249 18.996,6.35348 18.1067,6.28131 L17.2989343,6.21894832 L17.2989343,6.21894832 L16.4168964,6.15830836 L16.4168964,6.15830836 L15.4781675,6.10286855 L15.4781675,6.10286855 L14.5003284,6.05610731 C13.6740503,6.02172189 12.8253462,6 12,6 Z M10,9.57513 C10,9.144042 10.4355556,8.86383044 10.8188444,9.01614762 L10.9,9.05551 L15.1,11.4804 C15.4692308,11.6935385 15.4976331,12.2019195 15.1852071,12.4604799 L15.1,12.5196 L10.9,14.9445 C10.5266667,15.1600067 10.0662222,14.9229711 10.0064889,14.5148668 L10,14.4249 L10,9.57513 Z" id="形状" fill="#09244B"></path>
            </g>
        </g>
    </g>
</svg>

<svg xmlns="http://www.w3.org/2000/svg" width="24" height="24"><g fill="none" fill-rule="nonzero"><path d="M24 0v24H0V0h24ZM12.593 23.258l-.011.002-.071.035-.02.004-.014-.004-.071-.035c-.01-.004-.019-.001-.024.005l-.004.01-.017.428.005.02.01.013.104.074.015.004.012-.004.104-.074.012-.016.004-.017-.017-.427c-.002-.01-.009-.017-.017-.018Zm.265-.113-.013.002-.185.093-.01.01-.003.011.018.43.005.012.008.007.201.093c.012.004.023 0 .029-.008l.004-.014-.034-.614c-.003-.012-.01-.02-.02-.022Zm-.715.002a.023.023 0 0 0-.027.006l-.006.014-.034.614c0 .012.007.02.017.024l.015-.002.201-.093.01-.008.004-.011.017-.43-.003-.012-.01-.01-.184-.092Z"/><path fill="#09244B" d="M12 4c.855 0 1.732.022 2.582.058l1.004.048.961.057.9.061.822.064a3.802 3.802 0 0 1 3.494 3.423l.04.425.075.91c.07.943.122 1.971.122 2.954 0 .983-.052 2.011-.122 2.954l-.075.91c-.013.146-.026.287-.04.425a3.802 3.802 0 0 1-3.495 3.423l-.82.063-.9.062-.962.057-1.004.048c-.85.036-1.727.058-2.582.058-.855 0-1.732-.022-2.582-.058l-1.004-.048-.961-.057-.9-.062-.822-.063a3.802 3.802 0 0 1-3.494-3.423l-.04-.425-.075-.91A40.662 40.662 0 0 1 2 12c0-.983.052-2.011.122-2.954l.075-.91c.013-.146.026-.287.04-.425A3.802 3.802 0 0 1 5.73 4.288l.821-.064.9-.061.962-.057 1.004-.048C10.268 4.022 11.145 4 12 4Zm0 2c-.825 0-1.674.022-2.5.056l-.978.047-.939.055-.882.06-.808.063a1.802 1.802 0 0 0-1.666 1.623C4.11 9.113 4 10.618 4 12c0 1.382.11 2.887.227 4.096.085.872.777 1.55 1.666 1.623l.808.062.882.06.939.056.978.047c.826.034 1.675.056 2.5.056s1.674-.022 2.5-.056l.978-.047.939-.055.882-.06.808-.063a1.802 1.802 0 0 0 1.666-1.623C19.89 14.887 20 13.382 20 12c0-1.382-.11-2.887-.227-4.096a1.802 1.802 0 0 0-1.666-1.623l-.808-.062-.882-.06-.939-.056-.978-.047A60.693 60.693 0 0 0 12 6Zm-2 3.575a.6.6 0 0 1 .819-.559l.081.04 4.2 2.424a.6.6 0 0 1 .085.98l-.085.06-4.2 2.425a.6.6 0 0 1-.894-.43l-.006-.09v-4.85Z"/></g></svg>
